static/assets/images/products/kubestash/addons/pgbouncer-stash-addon.svg

<svg width="32" height="32" viewBox="0 0 32 32" fill="none" xmlns="http://www.w3.org/2000/svg">
<g clip-path="url(#clip0)">
<path d="M30.984 20.9919C30.44 20.8959 29.864 20.8639 29.32 20.9599C29.16 20.9919 29 20.9919 28.84 21.0239V20.9919C29.064 20.9279 29.32 20.8639 29.544 20.7999C30.056 20.6719 30.568 20.6399 31.08 20.6719C31.08 20.6399 31.08 20.6399 31.08 20.6079C31.016 20.0959 30.984 19.5519 30.92 19.0399C30.92 18.9439 30.856 18.9439 30.792 18.9439C30.152 18.9119 29.512 19.0079 28.904 19.2319C28.744 19.2959 28.584 19.3279 28.456 19.3919C29.16 18.9119 30.024 18.6239 30.888 18.5919C30.792 18.1759 30.696 17.7919 30.6 17.3759C30.472 16.8959 30.472 16.9279 29.992 16.8959C29.192 16.8639 28.392 17.0239 27.656 17.3439H27.56C27.528 17.3439 27.528 17.3439 27.496 17.3439C28.328 16.7359 29.32 16.4479 30.344 16.5119C30.12 15.9359 29.928 15.4239 29.704 14.8799C29.672 14.8479 29.64 14.8159 29.608 14.8159C29.192 14.7199 28.744 14.6879 28.328 14.7519C27.56 14.8799 26.792 15.1359 26.12 15.5199C26.088 15.5519 26.056 15.5519 26.024 15.5519C26.952 14.6879 28.168 14.2399 29.448 14.3039C29.416 14.2399 29.416 14.2079 29.384 14.1439C29.192 13.8239 29.032 13.4719 28.872 13.1519C28.84 13.0879 28.776 13.0239 28.68 12.9919C28.136 12.8319 27.592 12.7999 27.016 12.8959C26.152 13.0559 25.32 13.3439 24.552 13.8239L24.424 13.8879C24.424 13.8559 24.456 13.8239 24.52 13.7919C24.84 13.5679 25.128 13.3439 25.448 13.1519C26.344 12.5439 27.4 12.2879 28.488 12.4479C28.328 12.1919 28.168 11.9679 28.04 11.7119C28.008 11.6479 27.944 11.6159 27.88 11.5839C27.272 11.2319 26.568 11.1039 25.896 11.2319C25.064 11.3599 24.264 11.6799 23.56 12.1599C23.304 12.3199 23.048 12.5119 22.792 12.6719V12.6399C23.432 11.9679 24.2 11.3919 25.032 11.0079C25.768 10.6879 26.568 10.6239 27.336 10.8479C27.368 10.8479 27.368 10.8479 27.4 10.8479C27.368 10.8159 27.336 10.7839 27.336 10.7519C27.144 10.5599 27.08 10.2719 27.112 10.0159C27.144 9.53587 27.24 9.05587 27.368 8.60787C27.656 7.77587 27.656 6.87987 27.368 6.04787C26.856 4.63987 25.992 3.42387 24.84 2.46387C23.656 1.50387 22.28 0.799869 20.776 0.479869C19.88 0.255869 18.984 0.127869 18.056 0.0638691C17.192 -0.000130858 16.328 -0.000130858 15.464 0.0638691C14.632 0.127869 13.864 0.223869 13.032 0.319869C12.872 0.351869 12.712 0.383869 12.552 0.415869C13.32 0.703869 14.088 1.02387 14.792 1.43987C14.728 1.43987 14.664 1.43987 14.6 1.40787C13.704 1.15187 12.776 0.959869 11.848 0.863869C11.08 0.799869 10.312 0.863869 9.576 1.05587C8.104 1.37587 6.696 1.95187 5.416 2.78387C4.104 3.61587 3.048 4.76787 2.312 6.14387C1.288 8.06387 0.872004 10.2719 1.128 12.4159C1.224 13.3439 1.512 14.2399 1.928 15.0719C2.088 15.3279 2.248 15.5839 2.408 15.8719H2.44C2.504 15.5519 2.536 15.2319 2.568 14.9439C2.632 14.6239 2.664 14.3039 2.76 13.9839C2.856 13.6639 2.952 13.3439 3.048 13.0239C3.144 12.7039 3.304 12.4159 3.464 12.1279C3.464 12.1599 3.464 12.1599 3.464 12.1919C3.08 13.2799 2.888 14.5279 2.92 15.7439C3.784 15.6479 4.648 15.6479 5.448 15.8399C5.576 14.5599 5.832 13.2799 6.184 12.0639C6.216 12.0959 6.248 11.9679 6.216 12.0959C6.216 12.1919 6.184 12.2879 6.152 12.3519C5.96 13.3759 5.832 14.4319 5.8 15.4879C5.8 15.6159 5.8 15.7759 5.8 15.9039C6.792 16.1919 7.752 16.6719 8.616 17.4399C8.616 17.3119 8.616 17.1839 8.584 17.0239C8.552 15.9679 8.584 14.9119 8.68 13.8879C8.744 13.1199 8.84 12.3519 9.032 11.6159C9.032 11.5519 9.064 11.4879 9.096 11.4239C9.128 11.4559 9.128 11.4879 9.128 11.5199C9.064 12.1919 9 12.8639 9 13.5679C8.936 15.0079 9 16.4479 9.192 17.8559V17.8879C9.384 17.9839 9.608 18.0479 9.8 18.0479C12.104 18.0799 13.992 19.4879 14.536 21.6319C14.536 21.2799 14.504 20.8959 14.376 20.5439C14.088 19.4239 13.576 18.3359 12.904 17.3759C12.328 16.6079 11.912 15.7439 11.624 14.8159C11.304 13.7279 11.016 12.6079 10.824 11.4879C10.792 11.2319 10.728 10.9439 10.696 10.6879C10.728 10.7199 10.76 10.7519 10.76 10.8159C10.824 11.1999 10.888 11.6159 10.984 11.9999C11.24 13.3439 11.688 14.6559 12.36 15.8399C13.064 17.1519 14.12 18.2079 15.432 18.9119C16.648 19.5519 17.992 19.8719 19.368 19.8719C20.328 19.8719 21.32 19.8079 22.248 19.6159C22.536 19.5519 22.792 19.4879 23.08 19.4559C22.152 18.6559 21.512 17.5999 21.16 16.4159C21.352 16.7359 21.512 17.0559 21.736 17.3439C22.28 18.1759 23.048 18.8799 23.944 19.3599C24.424 19.6159 24.808 19.9999 25.032 20.4799C25.448 21.3439 25.64 22.2399 25.672 23.1999C25.704 24.0319 25.64 24.8959 25.448 25.7279C25.32 26.4959 25.032 27.2639 24.616 27.9359C24.2 28.6079 23.56 29.1199 22.76 29.3119C22.696 29.3439 22.6 29.3439 22.536 29.3439C22.632 29.2799 22.728 29.2159 22.856 29.1839C23.176 29.0559 23.464 28.8319 23.656 28.5119C23.688 28.4479 23.72 28.3839 23.624 28.3199C23.4 28.1279 23.272 27.8719 23.176 27.5839C22.984 27.0399 22.952 26.4639 23.08 25.9199C23.272 25.0879 23.592 24.2879 24.008 23.5839C24.264 23.1679 24.456 22.7199 24.68 22.2399C24.712 22.1119 24.744 21.9839 24.744 21.8559C24.744 21.7279 24.68 21.6639 24.552 21.6639C24.456 21.6639 24.36 21.6959 24.264 21.7279C23.816 21.8879 23.336 21.9519 22.856 21.8879C22.44 21.8559 22.056 21.7919 21.64 21.7599C21.192 21.7279 21.096 21.8559 21.16 22.2719C21.224 22.5919 21.224 22.8799 21.16 23.1999C21.064 23.7439 20.904 24.2559 20.68 24.7679C20.168 26.0159 19.944 27.3919 20.072 28.7679C20.104 29.4079 20.36 29.9839 20.744 30.4639C21.544 31.3599 22.664 31.9039 23.848 31.9359C24.744 31.9999 25.608 31.8079 26.408 31.3919C27.624 30.7839 28.648 29.8239 29.352 28.6719C29.448 28.5119 29.576 28.3199 29.672 28.1279L29.224 27.9999C29.352 27.9999 29.48 27.9999 29.608 28.0319C29.704 28.0639 29.736 28.0639 29.768 27.9359C29.8 27.8079 29.896 27.7119 29.928 27.5839C30.088 27.2319 30.216 26.8479 30.376 26.4959L29.608 26.3039V26.2719L30.408 26.3359C30.504 25.8239 30.632 25.3439 30.76 24.8319L29.448 24.5439V24.5119L30.792 24.6079C30.856 24.0639 30.952 23.4879 31.016 22.9439C30.472 22.7839 29.896 22.7199 29.288 22.7199C29.864 22.6239 30.44 22.5919 31.016 22.6559C31.016 22.6239 31.016 22.5919 31.048 22.5919C31.048 22.1119 31.08 21.5999 31.08 21.1199C31.08 21.0239 31.048 20.9919 30.984 20.9919ZM16.136 8.92787C15.848 9.08787 15.496 9.08787 15.208 8.92787C14.92 8.76787 14.664 8.51187 14.504 8.22387C14.952 7.99987 15.464 8.03187 15.912 8.28787C16.072 8.41587 16.168 8.57587 16.232 8.73587C16.264 8.83187 16.232 8.89587 16.136 8.92787Z" fill="#1971BD"/>
<path d="M6.28 19.4558C7.944 21.1198 9.672 22.8478 11.464 24.6398C10.632 24.6398 9.832 24.6398 8.936 24.6398C8.936 26.4638 8.936 28.2238 8.936 30.0158C7.112 30.0158 5.352 30.0158 3.528 30.0158C3.528 28.2558 3.528 26.4958 3.528 24.6718C2.664 24.6718 1.832 24.6718 0.968002 24.6718C2.792 22.8798 4.552 21.1518 6.28 19.4558Z" fill="#1971BD"/>
</g>
<defs>
<clipPath id="clip0">
<rect width="30.08" height="32" fill="white" transform="translate(1)"/>
</clipPath>
</defs>
</svg>

<svg xmlns="http://www.w3.org/2000/svg" width="32" height="32" fill="none" xmlns:v="https://vecta.io/nano"><g clip-path="url(#A)" fill="#1971bd"><path d="M30.984 20.992c-.544-.096-1.12-.128-1.664-.032-.16.032-.32.032-.48.064v-.032l.704-.192c.512-.128 1.024-.16 1.536-.128v-.064l-.16-1.568c0-.096-.064-.096-.128-.096-.64-.032-1.28.064-1.888.288-.16.064-.32.096-.448.16.704-.48 1.568-.768 2.432-.8l-.288-1.216c-.128-.48-.128-.448-.608-.48a5.34 5.34 0 0 0-2.336.448h-.096-.064a4.33 4.33 0 0 1 2.848-.832l-.64-1.632c-.032-.032-.064-.064-.096-.064-.416-.096-.864-.128-1.28-.064-.768.128-1.536.384-2.208.768-.032.032-.064.032-.096.032.928-.864 2.144-1.312 3.424-1.248-.032-.064-.032-.096-.064-.16-.192-.32-.352-.672-.512-.992-.032-.064-.096-.128-.192-.16-.544-.16-1.088-.192-1.664-.096-.864.16-1.696.448-2.464.928l-.128.064c0-.032.032-.064.096-.096l.928-.64c.896-.608 1.952-.864 3.04-.704l-.448-.736c-.032-.064-.096-.096-.16-.128-.608-.352-1.312-.48-1.984-.352-.832.128-1.632.448-2.336.928l-.768.512v-.032c.64-.672 1.408-1.248 2.24-1.632.736-.32 1.536-.384 2.304-.16h.064c-.032-.032-.064-.064-.064-.096-.192-.192-.256-.48-.224-.736.032-.48.128-.96.256-1.408a3.9 3.9 0 0 0 0-2.56c-.512-1.408-1.376-2.624-2.528-3.584C23.656 1.504 22.28.8 20.776.48c-.896-.224-1.792-.352-2.72-.416a17.52 17.52 0 0 0-2.592 0L13.032.32l-.48.096c.768.288 1.536.608 2.24 1.024-.064 0-.128 0-.192-.032-.896-.256-1.824-.448-2.752-.544a6.77 6.77 0 0 0-2.272.192 12.48 12.48 0 0 0-4.16 1.728c-1.312.832-2.368 1.984-3.104 3.36-1.024 1.92-1.44 4.128-1.184 6.272.096.928.384 1.824.8 2.656l.48.8h.032c.064-.32.096-.64.128-.928l.192-.96.288-.96c.096-.32.256-.608.416-.896v.064c-.384 1.088-.576 2.336-.544 3.552.864-.096 1.728-.096 2.528.096.128-1.28.384-2.56.736-3.776.032.032.064-.096.032.032 0 .096-.032.192-.064.256a20.45 20.45 0 0 0-.352 3.136v.416a7.19 7.19 0 0 1 2.816 1.536c0-.128 0-.256-.032-.416-.032-1.056 0-2.112.096-3.136.064-.768.16-1.536.352-2.272 0-.064.032-.128.064-.192.032.032.032.064.032.096L9 13.568c-.064 1.44 0 2.88.192 4.288v.032c.192.096.416.16.608.16 2.304.032 4.192 1.44 4.736 3.584 0-.352-.032-.736-.16-1.088-.288-1.12-.8-2.208-1.472-3.168-.576-.768-.992-1.632-1.28-2.56-.32-1.088-.608-2.208-.8-3.328l-.128-.8c.032.032.064.064.064.128L10.984 12c.256 1.344.704 2.656 1.376 3.84a7.48 7.48 0 0 0 3.072 3.072c1.216.64 2.56.96 3.936.96.96 0 1.952-.064 2.88-.256l.832-.16c-.928-.8-1.568-1.856-1.92-3.04.192.32.352.64.576.928.544.832 1.312 1.536 2.208 2.016.48.256.864.64 1.088 1.12.416.864.608 1.76.64 2.72.032.832-.032 1.696-.224 2.528-.128.768-.416 1.536-.832 2.208s-1.056 1.184-1.856 1.376c-.064.032-.16.032-.224.032.096-.064.192-.128.32-.16a1.63 1.63 0 0 0 .8-.672c.032-.064.064-.128-.032-.192-.224-.192-.352-.448-.448-.736a2.96 2.96 0 0 1-.096-1.664c.192-.832.512-1.632.928-2.336.256-.416.448-.864.672-1.344.032-.128.064-.256.064-.384s-.064-.192-.192-.192c-.096 0-.192.032-.288.064-.448.16-.928.224-1.408.16l-1.216-.128c-.448-.032-.544.096-.48.512.064.32.064.608 0 .928-.096.544-.256 1.056-.48 1.568a8.49 8.49 0 0 0-.608 4c.032.64.288 1.216.672 1.696.8.896 1.92 1.44 3.104 1.472.896.064 1.76-.128 2.56-.544a7.31 7.31 0 0 0 2.944-2.72l.32-.544-.448-.128c.128 0 .256 0 .384.032.096.032.128.032.16-.096s.128-.224.16-.352l.448-1.088-.768-.192v-.032l.8.064.352-1.504-1.312-.288v-.032l1.344.096.224-1.664c-.544-.16-1.12-.224-1.728-.224.576-.096 1.152-.128 1.728-.064 0-.032 0-.064.032-.064l.032-1.472c0-.096-.032-.128-.096-.128zM16.136 8.928c-.288.16-.64.16-.928 0a1.86 1.86 0 0 1-.704-.704c.448-.224.96-.192 1.408.064a1.06 1.06 0 0 1 .32.448c.032.096 0 .16-.096.192zM6.28 19.456l5.184 5.184H8.936v5.376H3.528v-5.344H.968l5.312-5.216z"/></g><defs><clipPath id="A"><path fill="#fff" transform="translate(1)" d="M0 0h30.08v32H0z"/></clipPath></defs></svg>
